X:0637
T:"The Fairy Queen"               0637
C:Turlough O'Carolan
C:moderate
Q:1/4=90
B:O'Neill's Music Of Ireland (The 1850) Lyon & Healy, Chicago, 1903 edition
Z:FROM O'NEILL'S TO NOTEWORTHY, FROM NOTEWORTHY TO ABC, MIDI AND .TXT BY VINCE BRENNAN 6-21-03 (HTTP://WWW.SOSYOURMOM.COM)
N:(#195 O'Sullivan's Collection) http://www.sosyurmom.com/occ/tunes.html
I:abc2nwc
M:3/4
L:1/8
K:G
"^vb"G4D2|F4D2|G4D2|{A}G3/2F/2 G3/2A/2 B3/2A/2|G3F ED|{C}B,4(A,/2B,/2D)|E4 TRF2|G4 {c}B3/2A/2|
 "^>"G4(G/4B/4d3/2)| "^>"F4(F/4A/4d3/2)|E3F ED|{C}B,4D2|{F}E3/2D/2 (EF) (GE)|DB TRA3(G/2A/2)|G6-|G4z2||
(BABcBc)|(BABc)(BG)|A4A2|A2B2d2| "^>"G3 ~G dG| "^>"F3 ~F dF|(EDEF)(ED)|{C}B,4(D/2E/2F)|
(GFED)B,A,|G,4(FG)|A3(G FE)|D4(GA)|B4E2|A4D2|TRG6(F/2G/2)|G4z2||
"_Fortissimo".G2.G2.F2|.E2.D2.C2|(B,DGB,) A,G|G,4z2|"_Piano"G2G2D2|(E2F2G2)|(A3/2B/2AG)(FE)|.D.G,.B,.D.G.A||
[G4B4]zB|[F4A4]zA|"_Forte"G2G2ED|{C}B,4(GF)|(E3/2D/2E)(FED)|{C}(B,A,G,A,)(B,D)|{D}E6|z2z2(d/2e/2f)||
g2g2f2|e2d2c2|(BdgB)(Ag)|G4 "^shake"(FE/2F/2)|(GFEDEF)|(GFEFGA)|[G6B6]|z2zBcd||
(edef)(ef)|{a}(gfga)(gf)|(edef)(ed)|HB4(gf)|(edef) g3/2d/2|(e/2B3/2) A4|G2G4-|G6|]
